Increase/img/features/04.svg

<svg width="21" height="19" viewBox="0 0 21 19" fill="none" xmlns="http://www.w3.org/2000/svg">
<path fill-rule="evenodd" clip-rule="evenodd" d="M10.7544 0.4375L15.5044 4L14.0044 6L12.0044 4.5V12.5H9.50439V4.5L7.50439 6L6.00439 4L10.7544 0.4375ZM3.25 16.25V11.9677H0.75V18.75H20.5044V11.9677H18.0044V16.25H3.25Z" fill="#4074F8"/>
</svg>

<svg width="21" height="19" fill="none" xmlns="http://www.w3.org/2000/svg"><path fill-rule="evenodd" clip-rule="evenodd" d="M10.754.438L15.504 4l-1.5 2-2-1.5v8h-2.5v-8l-2 1.5-1.5-2 4.75-3.563zM3.25 16.25v-4.282H.75v6.782h19.754v-6.782h-2.5v4.282H3.25z" fill="#4074F8"/></svg>
